X:1
T:the Mad Doctor
L:1/8
M:6/8
I:linebreak $
K:A
V:1 treble 
V:1
|: Ace e3 | fed d3 | edc Bcd | cBA B2 E | Ace e3 | fga gab | agf ef^d |$ e3 E3 :: edc cde | %9
 dcB Bcd | cde fdc | BcA GFE | Ace e3 | fga B3 | ecA fdc |$ BAG A3 :| %16
